img/search.svg

<svg width="71" height="71" viewBox="0 0 71 71" fill="none" xmlns="http://www.w3.org/2000/svg">
<path d="M44.4252 47.9021L44.1131 47.59L43.7646 47.861C39.8422 50.9115 34.9288 52.7494 29.5846 52.7494C16.8116 52.7494 6.41797 42.3558 6.41797 29.5827C6.41797 16.8096 16.8116 6.41602 29.5846 6.41602C42.3577 6.41602 52.7513 16.8096 52.7513 29.5827C52.7513 34.9268 50.9134 39.8402 47.86 43.7656L47.589 44.114L47.9011 44.4262L60.5524 57.0774L57.0764 60.5534L44.4252 47.9021ZM47.8346 29.5827C47.8346 19.5174 39.6499 11.3327 29.5846 11.3327C19.5194 11.3327 11.3346 19.5174 11.3346 29.5827C11.3346 39.648 19.5194 47.8327 29.5846 47.8327C39.6499 47.8327 47.8346 39.648 47.8346 29.5827Z" fill="#5B4EEA" stroke="white"/>
</svg>

<svg width="71" height="71" fill="none" xmlns="http://www.w3.org/2000/svg"><path d="m44.425 47.902-.312-.312-.348.271c-3.923 3.05-8.836 4.888-14.18 4.888-12.773 0-23.167-10.393-23.167-23.166S16.812 6.416 29.585 6.416c12.773 0 23.166 10.394 23.166 23.167 0 5.344-1.838 10.257-4.891 14.183l-.271.348.312.312 12.651 12.651-3.476 3.476-12.65-12.65Zm3.41-18.32c0-10.065-8.185-18.25-18.25-18.25-10.066 0-18.25 8.185-18.25 18.25 0 10.066 8.184 18.25 18.25 18.25 10.065 0 18.25-8.184 18.25-18.25Z" fill="#5B4EEA" stroke="#fff"/></svg>
